icons/op-pdf-16.svg

<svg width="16" height="16" viewBox="0 0 16 16" fill="none" xmlns="http://www.w3.org/2000/svg">
<path fill-rule="evenodd" clip-rule="evenodd" d="M3.75 1.5C3.61193 1.5 3.5 1.61193 3.5 1.75V14.25C3.5 14.3881 3.61193 14.5 3.75 14.5H13.25C13.3881 14.5 13.5 14.3881 13.5 14.25V4.66421C13.5 4.59791 13.4737 4.53432 13.4268 4.48744L10.5126 1.57322C10.4657 1.52634 10.4021 1.5 10.3358 1.5H3.75ZM2 1.75C2 0.783502 2.7835 0 3.75 0H10.3358C10.7999 0 11.245 0.184374 11.5732 0.512563L14.4874 3.42678C14.8156 3.75497 15 4.20008 15 4.66421V14.25C15 15.2165 14.2165 16 13.25 16H3.75C2.7835 16 2 15.2165 2 14.25V1.75Z" fill="#24292F"/>
<path d="M5.28856 13.5C5.10702 13.5 5 13.381 5 13.1778V10.8222C5 10.619 5.10702 10.5 5.28856 10.5H6.12176C6.68741 10.5 7.07726 10.9042 7.07726 11.5137C7.07726 12.1211 6.67404 12.5274 6.09309 12.5274H5.57712V13.1778C5.57712 13.381 5.47011 13.5 5.28856 13.5ZM5.57712 12.0431H5.96697C6.29757 12.0431 6.49058 11.8543 6.49058 11.5157C6.49058 11.1792 6.29948 10.9904 5.96888 10.9904H5.57712V12.0431Z" fill="#1F2328"/>
<path d="M7.70789 13.461C7.52634 13.461 7.41933 13.342 7.41933 13.1368V10.8222C7.41933 10.619 7.52634 10.5 7.70789 10.5H8.47229C9.29975 10.5 9.78706 11.0294 9.78706 11.9692C9.78706 12.909 9.29975 13.461 8.47229 13.461H7.70789ZM7.99645 12.948H8.40349C8.91947 12.948 9.19847 12.6115 9.19847 11.9713C9.19847 11.3516 8.91182 11.0109 8.40349 11.0109H7.99645V12.948Z" fill="#1F2328"/>
<path d="M10.4483 13.5C10.2667 13.5 10.1597 13.381 10.1597 13.1778V10.8222C10.1597 10.619 10.2667 10.5 10.4483 10.5H11.7382C11.8968 10.5 12 10.5964 12 10.7565C12 10.9166 11.8949 11.013 11.7382 11.013H10.7368V11.8051H11.6446C11.7936 11.8051 11.8911 11.8974 11.8911 12.0492C11.8911 12.2031 11.7955 12.2955 11.6446 12.2955H10.7368V13.1778C10.7368 13.381 10.6298 13.5 10.4483 13.5Z" fill="#1F2328"/>
</svg>

<svg xmlns="http://www.w3.org/2000/svg" width="16" height="16" viewBox="0 0 16 16"><path d="M2 1.75C2 .784 2.783 0 3.75 0h6.586c.464 0 .909.184 1.237.513l2.914 2.914c.329.328.513.773.513 1.237v9.586A1.75 1.75 0 0 1 13.25 16h-9.5A1.75 1.75 0 0 1 2 14.25Zm1.75-.25a.25.25 0 0 0-.25.25v12.5c0 .138.112.25.25.25h9.5a.25.25 0 0 0 .25-.25V4.664a.25.25 0 0 0-.073-.177l-2.914-2.914a.25.25 0 0 0-.177-.073Z"/><path d="M5.289 13.5c-.182 0-.289-.119-.289-.322v-2.356c0-.203.107-.322.289-.322h.833c.565 0 .955.404.955 1.014 0 .607-.403 1.013-.984 1.013h-.516v.651c0 .203-.107.322-.288.322Zm.288-1.457h.39c.331 0 .524-.189.524-.527 0-.337-.192-.526-.522-.526h-.392v1.053Zm2.131 1.418c-.182 0-.289-.119-.289-.324v-2.315c0-.203.107-.322.289-.322h.764c.828 0 1.315.529 1.315 1.469 0 .94-.487 1.492-1.315 1.492h-.764Zm.288-.513h.407c.516 0 .795-.337.795-.977 0-.619-.286-.96-.795-.96h-.407v1.937Zm2.452.552c-.181 0-.288-.119-.288-.322v-2.356c0-.203.107-.322.288-.322h1.29c.159 0 .262.096.262.257 0 .16-.105.256-.262.256h-1.001v.792h.908c.149 0 .246.092.246.244 0 .154-.095.247-.246.247h-.908v.882c0 .203-.107.322-.289.322Z"/></svg>
